build/img/logo.svg

<svg xmlns="http://www.w3.org/2000/svg" xmlns:xlink="http://www.w3.org/1999/xlink" width="500" zoomAndPan="magnify" viewBox="0 0 375 225" height="300" preserveAspectRatio="xMidYMid meet" version="1.0"><defs><g/><clipPath id="0b462e00b0"><path d="M 68 48.851562 L 112 48.851562 L 112 140 L 68 140 Z M 68 48.851562 " clip-rule="nonzero"/></clipPath><clipPath id="2911589665"><path d="M 26.414062 146 L 72 146 L 72 176 L 26.414062 176 Z M 26.414062 146 " clip-rule="nonzero"/></clipPath><clipPath id="b5da50bf21"><path d="M 119 162 L 156.914062 162 L 156.914062 186.851562 L 119 186.851562 Z M 119 162 " clip-rule="nonzero"/></clipPath></defs><path fill="#00bf63" d="M 132.714844 121.953125 L 113.695312 108.527344 L 113.695312 106.539062 L 132.714844 119.960938 Z M 132.714844 126.605469 L 113.695312 113.179688 L 113.695312 111.191406 L 132.714844 124.617188 Z M 132.714844 131.261719 L 113.695312 117.835938 L 113.695312 115.847656 L 132.714844 129.269531 Z M 132.714844 135.914062 L 113.695312 122.488281 L 113.695312 120.5 L 132.714844 133.921875 Z M 132.714844 140.570312 L 113.695312 127.144531 L 113.695312 125.15625 L 132.714844 138.578125 Z M 132.714844 145.222656 L 113.695312 131.800781 L 113.695312 129.808594 L 132.714844 143.230469 Z M 132.714844 149.878906 L 113.695312 136.453125 L 113.695312 134.460938 L 132.714844 147.886719 Z M 113.695312 102.371094 L 109.589844 104.738281 L 109.589844 141.277344 L 111.457031 141.511719 L 112.394531 141.628906 L 113.078125 142.285156 L 117.265625 146.289062 L 127.660156 153.628906 L 130.8125 153.1875 L 113.695312 141.105469 L 113.695312 139.117188 L 132.714844 152.542969 L 132.714844 152.921875 L 133.25 152.847656 L 134.859375 152.625 L 135.078125 152.898438 L 135.078125 117.46875 Z M 105.742188 106.957031 L 105.742188 122.105469 L 104.691406 122.105469 L 104.691406 107.5625 L 101.015625 109.679688 L 101.015625 133.367188 L 100.28125 133.367188 L 100.28125 110.105469 L 97.886719 111.484375 L 97.886719 136.199219 L 105.558594 136.199219 L 105.558594 140.769531 L 108.054688 141.082031 L 108.054688 105.625 L 105.742188 106.957031 " fill-opacity="1" fill-rule="nonzero"/><path fill="#ffffff" d="M 95.78125 165.128906 L 95.988281 165.3125 L 95.988281 166.957031 L 95.78125 166.773438 L 95.027344 166.105469 L 95.027344 164.460938 L 95.78125 165.128906 " fill-opacity="1" fill-rule="nonzero"/><g clip-path="url(#0b462e00b0)"><path fill="#ffffff" d="M 110.507812 81.371094 L 105.898438 77.285156 L 105.898438 68.175781 L 110.507812 72.257812 Z M 110.507812 92.125 L 105.898438 88.042969 L 105.898438 78.929688 L 110.507812 83.015625 Z M 105.070312 76.554688 L 102.074219 73.902344 L 100.457031 72.472656 L 100.457031 63.359375 L 102.074219 64.789062 L 105.070312 67.441406 Z M 105.070312 87.308594 L 102.074219 84.65625 L 100.457031 83.226562 L 100.457031 74.117188 L 102.074219 75.546875 L 105.070312 78.195312 Z M 105.070312 98.066406 L 102.074219 95.414062 L 100.457031 93.984375 L 100.457031 84.871094 L 102.074219 86.304688 L 105.070312 88.953125 Z M 99.632812 71.738281 L 98.929688 71.117188 L 95.78125 68.335938 L 95.019531 67.660156 L 95.019531 58.550781 L 95.78125 59.222656 L 98.929688 62.007812 L 99.632812 62.628906 Z M 99.632812 82.496094 L 98.929688 81.871094 L 95.78125 79.089844 L 95.019531 78.414062 L 95.019531 69.304688 L 95.78125 69.976562 L 98.929688 72.761719 L 99.632812 73.382812 Z M 99.632812 93.25 L 98.929688 92.628906 L 95.78125 89.84375 L 95.019531 89.171875 L 95.019531 80.058594 L 95.78125 80.734375 L 98.929688 83.515625 L 99.632812 84.136719 Z M 99.632812 104.007812 L 98.929688 103.382812 L 95.78125 100.601562 L 95.019531 99.925781 L 95.019531 90.816406 L 95.78125 91.492188 L 98.929688 94.273438 L 99.632812 94.894531 Z M 94.191406 66.925781 L 92.636719 65.550781 L 89.890625 63.121094 L 89.582031 62.84375 L 89.582031 53.734375 L 89.890625 54.011719 L 92.636719 56.441406 L 94.191406 57.816406 Z M 94.191406 77.679688 L 92.636719 76.308594 L 89.890625 73.875 L 89.582031 73.601562 L 89.582031 64.488281 L 89.890625 64.765625 L 92.636719 67.195312 L 94.191406 68.570312 Z M 94.191406 88.4375 L 92.636719 87.0625 L 89.890625 84.628906 L 89.582031 84.355469 L 89.582031 75.246094 L 89.890625 75.519531 L 92.636719 77.949219 L 94.191406 79.328125 Z M 94.191406 99.191406 L 92.636719 97.816406 L 89.890625 95.386719 L 89.582031 95.109375 L 89.582031 86 L 89.890625 86.277344 L 92.636719 88.707031 L 94.191406 90.082031 Z M 94.191406 109.945312 L 92.636719 108.570312 L 89.890625 106.140625 L 89.582031 105.867188 L 89.582031 96.753906 L 89.890625 97.03125 L 92.636719 99.460938 L 94.191406 100.835938 Z M 94.191406 120.703125 L 92.636719 119.324219 L 89.890625 116.898438 L 89.582031 116.621094 L 89.582031 107.511719 L 89.890625 107.785156 L 92.636719 110.214844 L 94.191406 111.589844 Z M 94.191406 131.457031 L 92.636719 130.082031 L 89.890625 127.652344 L 89.582031 127.375 L 89.582031 118.265625 L 89.890625 118.542969 L 92.636719 120.96875 L 94.191406 122.347656 Z M 110.605469 69.421875 L 105.023438 64.484375 L 98.734375 58.914062 L 95.585938 56.132812 L 92.441406 53.347656 L 89.699219 50.917969 L 87.425781 48.90625 L 68.976562 62.234375 L 68.976562 82.800781 L 81.679688 87.964844 L 82.859375 88.445312 L 82.859375 138.730469 L 91.566406 139.894531 L 89.890625 138.40625 L 89.582031 138.132812 L 89.582031 129.023438 L 89.890625 129.296875 L 92.636719 131.726562 L 94.191406 133.101562 L 94.191406 136.199219 L 95.019531 136.199219 L 95.019531 133.835938 L 95.027344 133.839844 L 95.027344 132.195312 L 95.019531 132.191406 L 95.019531 123.082031 L 95.027344 123.085938 L 95.027344 121.441406 L 95.019531 121.4375 L 95.019531 112.324219 L 95.027344 112.328125 L 95.027344 110.683594 L 95.019531 110.679688 L 95.019531 101.570312 L 95.78125 102.246094 L 98.929688 105.023438 L 99.632812 105.648438 L 99.632812 107.179688 L 100.457031 106.703125 L 100.457031 106.382812 L 100.675781 106.574219 L 101.800781 105.925781 L 100.457031 104.738281 L 100.457031 95.628906 L 102.074219 97.058594 L 105.070312 99.707031 L 105.070312 104.042969 L 105.898438 103.566406 L 105.898438 100.441406 L 108.035156 102.335938 L 108.164062 102.257812 L 109.160156 101.683594 L 105.898438 98.796875 L 105.898438 89.6875 L 110.507812 93.773438 L 110.507812 100.910156 L 111.96875 100.066406 L 111.96875 70.632812 L 110.605469 69.421875 " fill-opacity="1" fill-rule="nonzero"/></g><path fill="#00bf63" d="M 48.035156 96.632812 L 64 87.710938 L 64 91.339844 L 65.785156 90.074219 L 79.964844 95.84375 L 79.964844 90.71875 L 64.382812 84.382812 L 48.035156 96.632812 " fill-opacity="1" fill-rule="nonzero"/><path fill="#00bf63" d="M 48.035156 105.160156 L 64 96.238281 L 64 99.867188 L 65.785156 98.601562 L 79.964844 104.371094 L 79.964844 99.246094 L 64.382812 92.910156 L 48.035156 105.160156 " fill-opacity="1" fill-rule="nonzero"/><path fill="#00bf63" d="M 48.035156 113.683594 L 64 104.765625 L 64 108.394531 L 65.785156 107.128906 L 79.964844 112.894531 L 79.964844 107.773438 L 64.382812 101.4375 L 48.035156 113.683594 " fill-opacity="1" fill-rule="nonzero"/><path fill="#00bf63" d="M 48.035156 122.210938 L 64 113.292969 L 64 116.921875 L 65.785156 115.65625 L 79.964844 121.421875 L 79.964844 116.300781 L 64.382812 109.964844 L 48.035156 122.210938 " fill-opacity="1" fill-rule="nonzero"/><path fill="#00bf63" d="M 48.035156 130.738281 L 64 121.820312 L 64 125.449219 L 65.785156 124.183594 L 79.964844 129.949219 L 79.964844 124.828125 L 64.382812 118.492188 L 48.035156 130.738281 " fill-opacity="1" fill-rule="nonzero"/><path fill="#00bf63" d="M 48.035156 139.265625 L 52.03125 136.273438 L 50.921875 137.65625 Z M 48.035156 139.265625 " fill-opacity="1" fill-rule="nonzero"/><path fill="#00bf63" d="M 79.964844 133.355469 L 79.964844 138.476562 L 79.476562 138.277344 L 65.78125 132.710938 L 64 133.976562 L 64 130.34375 L 55.523438 135.082031 L 54.832031 134.992188 L 53.90625 134.867188 L 64.378906 127.019531 L 79.964844 133.355469 " fill-opacity="1" fill-rule="nonzero"/><path fill="#00bf63" d="M 67.015625 136.617188 L 63.566406 136.15625 L 64.378906 135.546875 Z M 67.015625 136.617188 " fill-opacity="1" fill-rule="nonzero"/><g clip-path="url(#2911589665)"><path fill="#ffffff" d="M 71.3125 164.015625 C 71.015625 163.769531 59.894531 156.378906 54.449219 151.929688 L 26.410156 175.765625 L 52.367188 148.480469 L 54.449219 146.296875 L 57.980469 150.007812 L 71.3125 164.015625 " fill-opacity="1" fill-rule="nonzero"/></g><path fill="#00bf63" d="M 103.640625 153.835938 L 92.554688 153.835938 L 92.554688 157.671875 L 88.160156 158.207031 L 87.214844 158.320312 L 86.527344 158.980469 L 78.355469 166.800781 L 54.449219 141.683594 L 34.554688 162.59375 L 54.453125 137.824219 L 94.089844 143.113281 L 94.089844 147.957031 L 96.175781 150.152344 L 96.175781 139.058594 L 102.699219 139.058594 L 102.699219 143.292969 L 111.101562 144.347656 L 121.671875 154.464844 L 103.640625 156.984375 L 103.640625 153.835938 " fill-opacity="1" fill-rule="nonzero"/><path fill="#ffffff" d="M 48.992188 166.027344 L 48.992188 167.253906 L 53.5 167.253906 L 53.5 161.515625 C 51.011719 161.515625 48.992188 163.535156 48.992188 166.027344 " fill-opacity="1" fill-rule="nonzero"/><path fill="#ffffff" d="M 55.277344 161.515625 L 55.277344 167.253906 L 59.785156 167.253906 L 59.785156 166.027344 C 59.785156 163.535156 57.769531 161.515625 55.277344 161.515625 " fill-opacity="1" fill-rule="nonzero"/><path fill="#ffffff" d="M 48.992188 173.535156 L 53.5 173.535156 L 53.5 169.027344 L 48.992188 169.027344 L 48.992188 173.535156 " fill-opacity="1" fill-rule="nonzero"/><path fill="#ffffff" d="M 55.277344 173.535156 L 59.785156 173.535156 L 59.785156 169.027344 L 55.277344 169.027344 L 55.277344 173.535156 " fill-opacity="1" fill-rule="nonzero"/><g clip-path="url(#b5da50bf21)"><path fill="#00bf63" d="M 156.707031 186.882812 L 140.496094 173.105469 L 133.644531 167.28125 C 131.570312 168.976562 128.488281 171.195312 125.757812 173.105469 C 122.597656 175.316406 119.90625 177.113281 119.777344 177.21875 L 123.695312 173.105469 L 130.742188 165.699219 L 132.011719 164.363281 L 133.644531 162.648438 L 135.355469 164.445312 L 156.707031 186.882812 " fill-opacity="1" fill-rule="nonzero"/></g><path fill="#ffffff" d="M 150.011719 176.050781 L 133.644531 158.851562 L 130.121094 162.554688 L 120.082031 173.105469 L 109.054688 184.695312 L 63.796875 184.695312 L 80.324219 168.875 L 88.503906 161.046875 L 95.414062 160.207031 L 95.414062 156.695312 L 100.78125 156.695312 L 100.78125 165.816406 L 102.496094 164.015625 L 102.496094 160.03125 L 124.300781 156.984375 L 133.644531 155.679688 L 150.011719 176.050781 " fill-opacity="1" fill-rule="nonzero"/><path fill="#00bf63" d="M 138.132812 178.871094 L 138.132812 179.882812 L 134.425781 179.882812 L 134.425781 175.164062 C 136.472656 175.164062 138.132812 176.824219 138.132812 178.871094 " fill-opacity="1" fill-rule="nonzero"/><path fill="#00bf63" d="M 132.964844 175.164062 L 132.964844 179.882812 L 129.257812 179.882812 L 129.257812 178.871094 C 129.257812 176.824219 130.917969 175.164062 132.964844 175.164062 " fill-opacity="1" fill-rule="nonzero"/><path fill="#00bf63" d="M 138.132812 185.050781 L 134.425781 185.050781 L 134.425781 181.339844 L 138.132812 181.339844 L 138.132812 185.050781 " fill-opacity="1" fill-rule="nonzero"/><path fill="#00bf63" d="M 132.964844 185.050781 L 129.257812 185.050781 L 129.257812 181.339844 L 132.964844 181.339844 L 132.964844 185.050781 " fill-opacity="1" fill-rule="nonzero"/><path fill="#ffffff" d="M 79.476562 138.277344 L 79.964844 138.476562 L 79.964844 138.34375 Z M 79.476562 138.277344 " fill-opacity="1" fill-rule="nonzero"/><g fill="#ffffff" fill-opacity="1"><g transform="translate(170.472649, 143.765212)"><g><path d="M 31.90625 0 L 20.8125 -20.125 L 17.703125 -20.125 L 17.703125 0 L 4.703125 0 L 4.703125 -53.3125 L 26.5 -53.3125 C 30.707031 -53.3125 34.289062 -52.578125 37.25 -51.109375 C 40.21875 -49.640625 42.4375 -47.628906 43.90625 -45.078125 C 45.375 -42.523438 46.109375 -39.675781 46.109375 -36.53125 C 46.109375 -32.988281 45.109375 -29.820312 43.109375 -27.03125 C 41.109375 -24.25 38.15625 -22.273438 34.25 -21.109375 L 46.5625 0 Z M 17.703125 -29.3125 L 25.75 -29.3125 C 28.125 -29.3125 29.90625 -29.894531 31.09375 -31.0625 C 32.289062 -32.226562 32.890625 -33.875 32.890625 -36 C 32.890625 -38.03125 32.289062 -39.625 31.09375 -40.78125 C 29.90625 -41.945312 28.125 -42.53125 25.75 -42.53125 L 17.703125 -42.53125 Z M 17.703125 -29.3125 "/></g></g></g><g fill="#ffffff" fill-opacity="1"><g transform="translate(219.991564, 143.765212)"><g><path d="M 17.703125 -42.90625 L 17.703125 -32.125 L 35.09375 -32.125 L 35.09375 -22.109375 L 17.703125 -22.109375 L 17.703125 -10.40625 L 37.375 -10.40625 L 37.375 0 L 4.703125 0 L 4.703125 -53.3125 L 37.375 -53.3125 L 37.375 -42.90625 Z M 17.703125 -42.90625 "/></g></g></g><g fill="#ffffff" fill-opacity="1"><g transform="translate(261.080109, 143.765212)"><g><path d="M 37.90625 -9.421875 L 18 -9.421875 L 14.8125 0 L 1.21875 0 L 20.5 -53.3125 L 35.546875 -53.3125 L 54.84375 0 L 41.09375 0 Z M 34.5625 -19.4375 L 27.953125 -38.96875 L 21.421875 -19.4375 Z M 34.5625 -19.4375 "/></g></g></g><g fill="#ffffff" fill-opacity="1"><g transform="translate(317.054705, 143.765212)"><g><path d="M 43.0625 -53.3125 L 43.0625 -42.90625 L 28.9375 -42.90625 L 28.9375 0 L 15.953125 0 L 15.953125 -42.90625 L 1.828125 -42.90625 L 1.828125 -53.3125 Z M 43.0625 -53.3125 "/></g></g></g></svg>

<svg xmlns="http://www.w3.org/2000/svg" width="500" viewBox="0 0 375 225" height="300" version="1.0"><defs><clipPath id="a"><path d="M68 48.852h44V140H68zm0 0"/></clipPath><clipPath id="b"><path d="M26.414 146H72v30H26.414zm0 0"/></clipPath><clipPath id="c"><path d="M119 162h37.914v24.852H119zm0 0"/></clipPath></defs><path fill="#00bf63" d="M132.715 121.953l-19.02-13.426v-1.988l19.02 13.422zm0 4.652l-19.02-13.425v-1.989l19.02 13.426zm0 4.657l-19.02-13.426v-1.988l19.02 13.422zm0 4.652l-19.02-13.426V120.5l19.02 13.422zm0 4.656l-19.02-13.425v-1.989l19.02 13.422zm0 4.653l-19.02-13.422v-1.992l19.02 13.421zm0 4.656l-19.02-13.426v-1.992l19.02 13.426zm-19.02-47.508l-4.105 2.367v36.54l1.867.234.938.117.683.656 4.188 4.004 10.394 7.34 3.153-.441-17.118-12.083v-1.988l19.02 13.426v.379l.535-.074 1.61-.223.218.273v-35.43zm-7.953 4.586v15.148h-1.05v-14.543l-3.676 2.118v23.687h-.735v-23.262l-2.394 1.38v24.714h7.672v4.57l2.496.313v-35.457l-2.313 1.332"/><path fill="#fff" d="M95.781 165.129l.207.184v1.644l-.207-.184-.754-.668v-1.644l.754.668"/><g clip-path="url(#a)"><path fill="#fff" d="M110.508 81.371l-4.61-4.086v-9.11l4.61 4.083zm0 10.754l-4.61-4.082V78.93l4.61 4.086zm-5.438-15.57l-2.996-2.653-1.617-1.43V63.36l1.617 1.43 2.996 2.652zm0 10.754l-2.996-2.653-1.617-1.43v-9.109l1.617 1.43 2.996 2.648zm0 10.757l-2.996-2.652-1.617-1.43v-9.113l1.617 1.434 2.996 2.648zm-5.437-26.328l-.703-.62-3.149-2.782-.761-.676v-9.11l.761.673 3.149 2.785.703.62zm0 10.758l-.703-.625-3.149-2.781-.761-.676v-9.11l.761.673 3.149 2.785.703.62zm0 10.754l-.703-.621-3.149-2.785-.761-.672v-9.113l.761.675 3.149 2.782.703.62zm0 10.758l-.703-.625-3.149-2.781-.761-.676v-9.11l.761.676 3.149 2.781.703.622zM94.19 66.926l-1.554-1.375-2.746-2.43-.309-.277v-9.11l.309.278 2.746 2.43 1.554 1.374zm0 10.754l-1.554-1.371-2.746-2.434-.309-.273v-9.114l.309.278 2.746 2.43 1.554 1.374zm0 10.757l-1.554-1.374-2.746-2.434-.309-.274v-9.109l.309.274 2.746 2.43 1.554 1.378zm0 10.754l-1.554-1.375-2.746-2.43-.309-.277V86l.309.277 2.746 2.43 1.554 1.375zm0 10.754l-1.554-1.375-2.746-2.43-.309-.273v-9.113l.309.277 2.746 2.43 1.554 1.375zm0 10.758l-1.554-1.379-2.746-2.426-.309-.277v-9.11l.309.274 2.746 2.43 1.554 1.375zm0 10.754l-1.554-1.375-2.746-2.43-.309-.277v-9.11l.309.278 2.746 2.426 1.554 1.379zm16.414-62.035l-5.582-4.938-6.289-5.57-3.148-2.781-3.145-2.785-2.742-2.43-2.273-2.012-18.45 13.328v20.567l12.704 5.164 1.18.48v50.285l8.706 1.165-1.675-1.489-.309-.273v-9.11l.309.274 2.746 2.43 1.554 1.375v3.097h.829v-2.363l.007.004v-1.645l-.007-.004v-9.109l.007.004v-1.645l-.007-.004v-9.113l.007.004v-1.644l-.007-.004v-9.11l.761.676 3.149 2.777.703.625v1.532l.824-.477v-.32l.219.191 1.125-.648-1.344-1.188v-9.11l1.617 1.43 2.996 2.649v4.336l.828-.477v-3.125l2.137 1.895.13-.078.995-.574-3.262-2.887v-9.11l4.61 4.086v7.137l1.46-.844V70.633l-1.363-1.211"/></g><path fill="#00bf63" d="M48.035 96.633L64 87.71v3.629l1.785-1.266 14.18 5.77v-5.125l-15.582-6.336-16.348 12.25"/><path fill="#00bf63" d="M48.035 105.16L64 96.238v3.63l1.785-1.266 14.18 5.77v-5.126L64.383 92.91l-16.348 12.25"/><path fill="#00bf63" d="M48.035 113.684L64 104.766v3.629l1.785-1.266 14.18 5.766v-5.122l-15.582-6.335-16.348 12.246"/><path fill="#00bf63" d="M48.035 122.21L64 113.294v3.629l1.785-1.266 14.18 5.766V116.3l-15.582-6.336-16.348 12.246"/><path fill="#00bf63" d="M48.035 130.738L64 121.82v3.63l1.785-1.266 14.18 5.765v-5.12l-15.582-6.337-16.348 12.246m0 8.528l3.996-2.993-1.11 1.383zm0 0"/><path fill="#00bf63" d="M79.965 133.355v5.122l-.488-.2-13.696-5.566L64 133.977v-3.633l-8.477 4.738-.691-.09-.926-.125 10.473-7.847 15.586 6.335"/><path fill="#00bf63" d="M67.016 136.617l-3.45-.46.813-.61zm0 0"/><g clip-path="url(#b)"><path fill="#fff" d="M71.313 164.016c-.297-.246-11.418-7.637-16.864-12.086L26.41 175.766l25.957-27.286 2.082-2.183 3.531 3.71 13.333 14.009"/></g><path fill="#00bf63" d="M103.64 153.836H92.556v3.836l-4.395.535-.945.113-.688.66-8.172 7.82-23.906-25.116-19.894 20.91 19.898-24.77 39.637 5.29v4.843l2.086 2.195V139.06h6.523v4.234l8.403 1.055 10.57 10.117-18.031 2.52v-3.15"/><path fill="#fff" d="M48.992 166.027v1.227H53.5v-5.738a4.51 4.51 0 00-4.508 4.511m6.285-4.511v5.738h4.508v-1.227a4.508 4.508 0 00-4.508-4.511m-6.285 12.019H53.5v-4.508h-4.508v4.508m6.285 0h4.508v-4.508h-4.508v4.508"/><g clip-path="url(#c)"><path fill="#00bf63" d="M156.707 186.883l-16.21-13.778-6.852-5.824c-2.075 1.696-5.157 3.914-7.887 5.824-3.16 2.211-5.852 4.008-5.98 4.114l3.917-4.114 7.047-7.406 1.27-1.336 1.633-1.715 1.71 1.797 21.352 22.438"/></g><path fill="#fff" d="M150.012 176.05l-16.367-17.198-3.524 3.703-10.039 10.55-11.027 11.59H63.797l16.527-15.82 8.18-7.828 6.91-.84v-3.512h5.367v9.121l1.715-1.8v-3.985l21.805-3.047 9.344-1.304 16.367 20.37"/><path fill="#00bf63" d="M138.133 178.871v1.012h-3.707v-4.719a3.708 3.708 0 013.707 3.707m-5.168-3.707v4.719h-3.707v-1.012a3.708 3.708 0 013.707-3.707m5.168 9.886h-3.707v-3.71h3.707v3.71m-5.168 0h-3.707v-3.71h3.707v3.71"/><path fill="#fff" d="M79.477 138.277l.488.2v-.133zm122.902 5.488l-11.094-20.125h-3.11v20.125h-13V90.453h21.798c4.207 0 7.789.734 10.75 2.203 2.968 1.469 5.187 3.48 6.656 6.031 1.469 2.555 2.203 5.402 2.203 8.547 0 3.543-1 6.71-3 9.5-2 2.781-4.953 4.758-8.86 5.922l12.313 21.11zm-14.203-29.312h8.047c2.375 0 4.156-.582 5.343-1.75 1.196-1.164 1.797-2.813 1.797-4.938 0-2.031-.601-3.625-1.797-4.781-1.187-1.164-2.968-1.75-5.343-1.75h-8.047zm49.519-13.594v10.781h17.39v10.016h-17.39v11.703h19.672v10.406h-32.672V90.453h32.672v10.406zm61.291 33.484H279.08l-3.187 9.422h-13.594l19.281-53.312h15.047l19.297 53.312h-13.75zm-3.343-10.015l-6.61-19.532-6.531 19.532zm64.474-33.875v10.406h-14.125v42.906h-12.984V100.86h-14.125V90.453zm0 0"/></svg>
